icons/numpy.svg

<!--
  - The MIT License (MIT)
  -
  - Copyright (c) 2015-2024 Elior "Mallowigi" Boukhobza
  -
  - Permission is hereby granted, free of charge, to any person obtaining a copy
  - of this software and associated documentation files (the "Software"), to deal
  - in the Software without restriction, including without limitation the rights
  - to use, copy, modify, merge, publish, distribute, sublicense, and/or sell
  - copies of the Software, and to permit persons to whom the Software is
  - furnished to do so, subject to the following conditions:
  -
  - The above copyright notice and this permission notice shall be included in all
  - copies or substantial portions of the Software.
  -
  - THE SOFTWARE IS PROVIDED "AS IS", WITHOUT WARRANTY OF ANY KIND, EXPRESS OR
  - IMPLIED, INCLUDING BUT NOT LIMITED TO THE WARRANTIES OF MERCHANTABILITY,
  - FITNESS FOR A PARTICULAR PURPOSE AND NONINFRINGEMENT. IN NO EVENT SHALL THE
  - AUTHORS OR COPYRIGHT HOLDERS BE LIABLE FOR ANY CLAIM, DAMAGES OR OTHER
  - LIABILITY, WHETHER IN AN ACTION OF CONTRACT, TORT OR OTHERWISE, ARISING FROM,
  - OUT OF OR IN CONNECTION WITH THE SOFTWARE OR THE USE OR OTHER DEALINGS IN THE
  - SOFTWARE.
  -
  -->

<svg version="1.1" xmlns="http://www.w3.org/2000/svg" viewBox="0 0 480 512" width="16px" height="16px">
  <path fill="#42A5F5" data-iconColor="NumPy"
        d="M203.5571289,104.0314026l-85.5129776-43.1698227l-93.8829498,46.8550644l87.8459167,44.1122284L203.5571289,104.0314026z M242.7817078,123.8224411l89.6654663,45.2887039l-93.0251617,46.7120514l-87.9823761-44.1772461L242.7817078,123.8224411z M362.5479736,61.505024L454.6763,107.7166443l-82.4067078,41.375946l-89.8473816-45.3341675L362.5479736,61.505024z M322.88797,41.6034584L239.9483948,0l-82.0363007,40.9600105l85.4674835,43.0983696L322.88797,41.6034584z M258.0530396,398.7977905V512l100.4658813-50.1503296l-0.0909729-113.2477112L258.0530396,398.7977905z M358.3824158,309.0783691l-0.1169434-112.0517883L258.0530396,246.858429v112.0907898L358.3824158,309.0783691z M479,288.0914307v113.6376343l-85.7014465,42.7539062l-0.0714417-113.1112366L479,288.0914307z M479,248.3533325V136.9969788l-85.7924194,42.6823883v112.2792511L479,248.3533325z M222.5845642,246.858429l-67.6682739-34.0509949v147.0647278L64.4905167,167.9086914c-0.9877663-2.0473175-5.0427856-4.2831573-6.0825348-4.8356171L0,133.2662659v259.9159546l60.1625519,32.2506104V289.514801l82.7316437,159.1148376c0.8513031,1.7223816,9.0263367,18.2896729,17.8252258,24.1132507c11.6776886,7.7669067,61.8196564,37.9182129,61.8196564,37.9182129L222.5845642,246.858429z"/>
</svg>

<svg xmlns="http://www.w3.org/2000/svg" viewBox="0 0 480 512"><path fill="#42a5f5" d="m203.557 104.031-85.513-43.17-93.883 46.856 87.846 44.112zm39.225 19.791 89.665 45.29-93.025 46.711-87.982-44.177zm119.766-62.317 92.128 46.212-82.406 41.376-89.848-45.335zm-39.66-19.902L239.948 0l-82.036 40.96 85.468 43.098zm-64.835 357.195V512l100.466-50.15-.091-113.248zm100.33-89.72-.118-112.051-100.212 49.831V358.95zM479 288.091V401.73l-85.701 42.754-.072-113.111zm0-39.738V136.997l-85.792 42.682v112.28zm-256.415-1.495-67.669-34.05v147.064L64.491 167.91c-.988-2.048-5.043-4.283-6.083-4.836L0 133.266v259.916l60.163 32.25V289.516l82.731 159.115c.851 1.722 9.027 18.29 17.825 24.113 11.678 7.767 61.82 37.918 61.82 37.918z" data-iconColor="NumPy"/></svg>
